X: 1
T: Danse De Chez Nous
M: 6/8
L: 1/8
R: jig
K: Gmaj
|: E | 
DGB d2 B | e2 B dBG | DGB d2 B | e2 B cAF |
DFA c2 A | d2 A cAF | DFA cBA |1 GBe d2 :|2 GB/c/d g2 ||
|: f | 
g2 B d2 G | B3- B2 E | DD/E/F GAB | c3- c2 d |
e2 A c2 G | F3- F2 d | f>ed cBA |1 GBe dd/e/ :|2 G3 GF ||
